X: 141
T: Missa Tandernaken / Agnus Dei
N: Derived from Rue1030e-Missa_Tandernaken-Agnus.krn
C: Pierre de la Rue
%%abc-version 2.0
%%abcx-abcm2ps-target-version 5.9.1 (29 Sep 2008)
%%abc-creator hum2abc beta
%%abcx-conversion-date 2019/02/17 08:01:15
%%abc-edited-by Jesse Rodin
%%abc-edited-by Chris Gage 05-24-2013
%%abcx-initial-encoding-date 2013/08/04/
%%humdrum-veritas 3126350629
%%humdrum-veritas-data 1725849004
%%linebreak <none>
%%barnumbers 0
L: 1/4
M: 3/1
Q: 1/2=120
%%staves [1 2 3 4]
V: 1 clef=treble
V: 2 clef=treble-8
V: 3 clef=treble-8
V: 4 clef=bass
K: F
[V:1] z12 | 
[V:2] z4z4A4 | 
[V:3] z12 | 
[V:4] D,8F,4 | 
[V:1] z12 | 
[V:2] B4A2B4AG | 
[V:3] z12 | 
[V:4] G,4F,2G,4F,E, | 
[V:1] z4z4A4 | 
[V:2] F2B2A2G4^F2 | 
[V:3] z12 | 
[V:4] D,3B,,C,B,,A,,G,,A,,4 | 
[V:1] B3AA2B4AG | 
[V:2] G4F2G4FE | 
[V:3] d8d4 | 
[V:4] G,,4z2G,,3A,,B,,C, | 
[V:1] F2B2A2G4F2 | 
[V:2] D2d3cBGA4 | 
[V:3] d8d4 | 
[V:4] D,3E,F,2G,2D,4 | 
[V:1] G2D2E2G4FE | 
[V:2] B4z2d4c2 | 
[V:3] G8G4 | 
[V:4] z2G,3F,E,D,E,4 | 
[V:1] FDFGA2=B2c2A2- | 
[V:2] B2A4d2e2f2 | 
[V:3] d8c4 | 
[V:4] D,3E,F,2G,2C,2F,2 | 
[V:1] A2G4^FEF4 | 
[V:2] e2dcd4z2d2 | 
[V:3] =B4A8 | 
[V:4] G,4D,8 | 
[V:1] G8z2G2 | 
[V:2] d2d2=B2G4c2- | 
[V:3] G12 | 
[V:4] z2G,2G,2G,2E,2C,2 | 
[V:1] G2G2E2C2G4 | 
[V:2] c2=B2cAcde2fe | 
[V:3] z4z4G4 | 
[V:4] G,,4C,8 | 
[V:1] A2c3=BAGF2E2 | 
[V:2] f2edc4z2c2 | 
[V:3] F8F4 | 
[V:4] F,,8z4 | 
[V:1] D2C2z2F3GA2 | 
[V:2] d2A4d2c4 | 
[V:3] F8F4 | 
[V:4] z12 | 
[V:1] B8A4 | 
[V:2] B4z2d4cd | 
[V:3] G8F4 | 
[V:4] z12 | 
[V:1] G4F2F4ED | 
[V:2] e2c2dcBAB2cB | 
[V:3] E4D8 | 
[V:4] z4z4F,4 | 
[V:1] E12 | 
[V:2] c4z4A3B | 
[V:3] C12 | 
[V:4] G,4G,2A,4G,F, | 
[V:1] z4z4G4 | 
[V:2] cdefg2f4e2 | 
[V:3] z4z4C4 | 
[V:4] E,F,G,A,B,A,G,F,G,4 | 
[V:1] A6GFA2=B2 | 
[V:2] f8z4 | 
[V:3] F8F4 | 
[V:4] F,4z4z4 | 
[V:1] c3=Bc2A4GF | 
[V:2] f6edc2d2 | 
[V:3] A8A4 | 
[V:4] F,8F,4 | 
[V:1] E2G4F4E2 | 
[V:2] e2c4=BAG4 | 
[V:3] c8c4 | 
[V:4] C,8C,4 | 
[V:1] F6G2A4 | 
[V:2] F12 | 
[V:3] A8A4 | 
[V:4] D,8D,4 | 
[V:1] B8A2G2- | 
[V:2] f8e4 | 
[V:3] d8c4 | 
[V:4] B,,8C,4 | 
[V:1] GFF2G2FED4 | 
[V:2] d8z4 | 
[V:3] A4B8 | 
[V:4] D,4G,,8 | 
[V:1] C2F4E2D4 | 
[V:2] z2d2d2c2f4 | 
[V:3] A12- | 
[V:4] z2D,4A,,2D,4 | 
[V:1] C12 ||  
[V:2] e12 ||  
[V:3] A12 ||  
[V:4] A,,12 ||  
[V:1]  [K:F] [K:clef=treble][M:2/1]F8 | 
[V:2]  [K:F] [K:clef=treble-8][M:2/1]d8 | 
[V:3]  [K:F] [K:clef=treble-8][M:2/1]z8 | 
[V:4]  [K:F] [K:clef=bass][M:2/1]z8 | 
[V:1] F4E4 | 
[V:2] d4c4 | 
[V:3] z8 | 
[V:4] z8 | 
[V:1] F4G4 | 
[V:2] d4=B4 | 
[V:3] z8 | 
[V:4] z8 | 
[V:1] A4A4- | 
[V:2] A8 | 
[V:3] z8 | 
[V:4] z8 | 
[V:1] A2GFGFED | 
[V:2] z4e4 | 
[V:3] z8 | 
[V:4] z8 | 
[V:1] C2EFGA=B2- | 
[V:2] e6dc | 
[V:3] z8 | 
[V:4] z8 | 
[V:1] B2A4^G2 | 
[V:2] dc=BA=B4 | 
[V:3] z8 | 
[V:4] z8 | 
[V:1] A4F2G2- | 
[V:2] A2c2d2e2- | 
[V:3] z8 | 
[V:4] z8 | 
[V:1] GFEDE4 | 
[V:2] e2d4^c2 | 
[V:3] z8 | 
[V:4] z8 | 
[V:1] D8 | 
[V:2] d8- | 
[V:3] z8 | 
[V:4] z8 | 
[V:1] z4D4 | 
[V:2] d8 | 
[V:3] z8 | 
[V:4] z8 | 
[V:1] F6ED | 
[V:2] z4d4 | 
[V:3] z8 | 
[V:4] z8 | 
[V:1] F2EDC4 | 
[V:2] A4A4 | 
[V:3] z8 | 
[V:4] z8 | 
[V:1] E6DC | 
[V:2] c6=BA | 
[V:3] z8 | 
[V:4] z8 | 
[V:1] E2F2G4- | 
[V:2] c2=BAG4 | 
[V:3] z8 | 
[V:4] z8 | 
[V:1] G2FED4- | 
[V:2] =B6AG | 
[V:3] z8 | 
[V:4] z8 | 
[V:1] D2E2F2G2 | 
[V:2] =B2c2d4 | 
[V:3] z8 | 
[V:4] z8 | 
[V:1] A2GFE4 | 
[V:2] A6=B2 | 
[V:3] z8 | 
[V:4] z8 | 
[V:1] z2=B2c2BA | 
[V:2] c2d2e3d/c/ | 
[V:3] z8 | 
[V:4] z8 | 
[V:1] G3FGA=B2 | 
[V:2] =B3A=Bcd2 | 
[V:3] z8 | 
[V:4] z8 | 
[V:1] c2A3^GG2 | 
[V:2] A2c2=B4 | 
[V:3] z8 | 
[V:4] z8 | 
[V:1] A6G2 | 
[V:2] z2A4=B2 | 
[V:3] z8 | 
[V:4] z8 | 
[V:1] E2F3EG2- | 
[V:2] c2d3c=BA | 
[V:3] z8 | 
[V:4] z8 | 
[V:1] G2FED4 | 
[V:2] G2c4=B2 | 
[V:3] z8 | 
[V:4] z8 | 
[V:1] C4z2E2 | 
[V:2] c8 | 
[V:3] z8 | 
[V:4] z8 | 
[V:1] F4G2A2- | 
[V:2] z2A2=B2c2 | 
[V:3] z8 | 
[V:4] z8 | 
[V:1] AGFED2E2 | 
[V:2] d3c=BAG2 | 
[V:3] z8 | 
[V:4] z8 | 
[V:1] C2F4E2 | 
[V:2] A2F2G4 | 
[V:3] z8 | 
[V:4] z8 | 
[V:1] F8 | 
[V:2] F4z2A2 | 
[V:3] z8 | 
[V:4] z8 | 
[V:1] z2A2A4- | 
[V:2] A3=Bc2d2- | 
[V:3] z8 | 
[V:4] z8 | 
[V:1] A2GFE2F2- | 
[V:2] dcA=Bc=Bd2- | 
[V:3] z8 | 
[V:4] z8 | 
[V:1] FEEDC2G2- | 
[V:2] dcc=BA2B2- | 
[V:3] z8 | 
[V:4] z8 | 
[V:1] GFEDEDF2 | 
[V:2] BAGFGFA2- | 
[V:3] z8 | 
[V:4] z8 | 
[V:1] EDD4^C2 | 
[V:2] AGF2E4 | 
[V:3] z8 | 
[V:4] z8 | 
[V:1] D8 ||  
[V:2] D8 ||  
[V:3] z8 ||  
[V:4] z8 ||  
[V:1]  [K:F] [K:clef=treble][M:3/1]z4z4A4 | 
[V:2]  [K:F] [K:clef=treble-8][M:3/1]z4z4d4 | 
[V:3]  [K:F] [K:clef=treble-8][M:3/1]z4z4F4 | 
[V:4]  [K:F] [K:clef=bass][M:3/1]z4z4D,4 | 
[V:1] A8A4 | 
[V:2] f6e2d4 | 
[V:3] F8F4 | 
[V:4] D,8D,4 | 
[V:1] c8c4 | 
[V:2] c6A2c2d2 | 
[V:3] A8A4 | 
[V:4] A,,12- | 
[V:1] A6G2E4 | 
[V:2] e8c4 | 
[V:3] c8c4 | 
[V:4] A,,8A,,4 | 
[V:1] F6G2A4 | 
[V:2] d6c2A4 | 
[V:3] A8A4 | 
[V:4] D,6E,2F,4 | 
[V:1] F4B6A2 | 
[V:2] B4G4A4 | 
[V:3] d8c4 | 
[V:4] D,4B,,4F,4- | 
[V:1] A6G2G4 | 
[V:2] d8d4 | 
[V:3] A4B8 | 
[V:4] F,4G,8 | 
[V:1] A4z4A4 | 
[V:2] f6e2c4 | 
[V:3] A12 | 
[V:4] D,8z4 | 
[V:1] F8F4 | 
[V:2] d8c2=B2 | 
[V:3] z12 | 
[V:4] D,8D,4 | 
[V:1] F6G2A2=B2 | 
[V:2] A8z4 | 
[V:3] z4z4A4 | 
[V:4] D,6E,2F,2G,2 | 
[V:1] c8c4 | 
[V:2] z4z4f4 | 
[V:3] F8F4 | 
[V:4] A,8A,4 | 
[V:1] A6G2F4 | 
[V:2] f6e2d4 | 
[V:3] F8F4 | 
[V:4] D,6E,2F,4 | 
[V:1] E4G6F2 | 
[V:2] e8e4 | 
[V:3] c8=B4 | 
[V:4] C,6D,2E,4 | 
[V:1] F6E2E4 | 
[V:2] c8c4 | 
[V:3] A4G8 | 
[V:4] F,4C,8 | 
[V:1] F12 | 
[V:2] A4d6c2 | 
[V:3] F12 | 
[V:4] D,4F,6E,2 | 
[V:1] z4z4F4 | 
[V:2] c6=B2=B4 | 
[V:3] z4z4F4 | 
[V:4] E,4D,8 | 
[V:1] E4G8 | 
[V:2] c12 | 
[V:3] G8G4 | 
[V:4] C,12- | 
[V:1] F2E2D6C2 | 
[V:2] z12 | 
[V:3] G8G4 | 
[V:4] C,4B,,8 | 
[V:1] C2D2E2F2E4 | 
[V:2] c8c4 | 
[V:3] A8A4 | 
[V:4] A,,8C,4 | 
[V:1] D6^C2C4 | 
[V:2] =B4A8 | 
[V:3] F4E8 | 
[V:4] D,4A,,8 | 
[V:1] D8z4 | 
[V:2] A2=B2c2d2e4 | 
[V:3] D8z4 | 
[V:4] z4z4A,4 | 
[V:1] z12 | 
[V:2] f4e6d2 | 
[V:3] z12 | 
[V:4] A,8F,4 | 
[V:1] z12 | 
[V:2] d6^c2^c4 | 
[V:3] z12 | 
[V:4] D,4E,6D,2 | 
[V:1] D2E2F2G2A4 | 
[V:2] d12 | 
[V:3] z4z4d4 | 
[V:4] D,8D,4 | 
[V:1] B8A4 | 
[V:2] z12 | 
[V:3] d8c4 | 
[V:4] G,,8z4 | 
[V:1] F4G6F2 | 
[V:2] z4z4d4 | 
[V:3] A4B8 | 
[V:4] z4z4G,4 | 
[V:1] A4F6E2 | 
[V:2] d6c2A4 | 
[V:3] A12 | 
[V:4] F,4D,8 | 
[V:1] G4E6D2 | 
[V:2] B4G8 | 
[V:3] z12 | 
[V:4] G,,4C,6B,,2 | 
[V:1] F4E6D2 | 
[V:2] F4c6=B2 | 
[V:3] z4z4G4 | 
[V:4] D,4A,,4C,4 | 
[V:1] =B,4E6D2 | 
[V:2] d4c4=B2A2- | 
[V:3] G8F4 | 
[V:4] G,,4C,4D,4 | 
[V:1] D8^C4 | 
[V:2] A2G2A8 | 
[V:3] D4E8 | 
[V:4] B,,4A,,8 | 
[V:1] D12 |]  
[V:2] A12 |]  
[V:3] D12 |]  
[V:4] D,12 |]  



